X: 221
T: Big Sciota
C:Howdy Forester
B: canberra pickers and fiddlers
B: tunes
M:4/4
L:1/8
Q: 1/4=125
K:G
V:1 
%480
x DF |: "G"GFGB AGAc | BAGB AGEF | GFGB AGAc | ABBc B2DF |
GFGA Bcd=f | "C"edcB cdeg | "D"fedB cBAc| [1 "G"B2G2G2 DF:|[2 "G"B2G2G2 ||
|: ef | "G"gfga bage | "D"faab (a2 a2) | faab agfe | "C"deef e2 ef |
gfed edBA | "Em"deee efge | "D"dcBG AFAc | "G"B2 G2 G2 :|
% abcbook-tune_id 6298c245de8a92848001dfb6
% abcbook-tune_composer_id 
% abcbook-link-0 https://www.youtube.com/watch?v=DPR1wC4800Q
% abcbook-link-title-0 ETSU Bluegrass Band-  Redux &quot;The Big Sciota&quot;,  Leah Needham on dobro
% abcbook-link-1 https://www.youtube.com/watch?v=wh6f64nwC2U
% abcbook-link-title-1 Big Sciota
% abcbook-link-2 https://www.youtube.com/watch?v=Gyj7m0QdFkM
% abcbook-link-title-2 Big Scioty - Aly Bain &amp; Jay Ungar    H.Q.
% abcbook-link-3 https://www.youtube.com/watch?v=2cKrHnLZz4g
% abcbook-link-title-3 Big Sciota
% abcbook-link-4 https://www.youtube.com/watch?v=U0on3vZAW58
% abcbook-link-title-4 The Westbound Rangers &quot;Big Scioty&quot;
% abcbook-link-5 https://www.youtube.com/watch?v=0PhX-ji_DQg
% abcbook-link-title-5 The Wayfarers - Big Sciota  [Live on the Wheeling Jamboree]
% abcbook-boost 0
% abcbook-difficulty 0
% abcbook-tags old time tunes,ralph cullen,steve ryan,© free
% abcbook-tablature 
% abcbook-transpose 
% abcbook-tuning GDAD
% abcbook-lastupdated 1739277787658
% abcbook-src-url https://tunebook.net/scrape/tunes.abc
% abcbook-soundfonts 
% abcbook-repeats 3


